src/img/bg_headline.svg

<?xml version="1.0" encoding="UTF-8"?>
<svg width="321px" height="90px" viewBox="0 0 321 90" version="1.1" xmlns="http://www.w3.org/2000/svg" xmlns:xlink="http://www.w3.org/1999/xlink">
    <!-- Generator: Sketch 64 (93537) - https://sketch.com -->
    <title>Be featured!</title>
    <desc>Created with Sketch.</desc>
    <defs>
        <polygon id="path-1" points="0.000321804511 0.364775226 320.480286 0.364775226 320.480286 88.8578527 0.000321804511 88.8578527"></polygon>
        <polygon id="path-3" points="0.357062718 0.398 3.97150803 0.398 3.97150803 1.27337989 0.357062718 1.27337989"></polygon>
        <polygon id="path-5" points="0.189998709 0.398 2.98117018 0.398 2.98117018 1.1792 0.189998709 1.1792"></polygon>
        <polygon id="path-7" points="0.408763712 0.398 2.18182188 0.398 2.18182188 1.24052472 0.408763712 1.24052472"></polygon>
        <polygon id="path-9" points="0.0998567867 0.398 2.08610532 0.398 2.08610532 1.1812 0.0998567867 1.1812"></polygon>
        <polygon id="path-11" points="0.120608943 0.398 2.48892078 0.398 2.48892078 1.24967682 0.120608943 1.24967682"></polygon>
    </defs>
    <g id="Page-1" stroke="none" stroke-width="1" fill="none" fill-rule="evenodd">
        <g id="Homepage" transform="translate(-28.000000, -2932.000000)">
            <g id="UGC" transform="translate(-559.000000, 2932.000000)">
                <g id="Be-featured!" transform="translate(587.000000, 0.000000)">
                    <g id="Group-3" transform="translate(0.000000, 0.415710)">
                        <mask id="mask-2" fill="white">
                            <use xlink:href="#path-1"></use>
                        </mask>
                        <g id="Clip-2"></g>
                        <path d="M217.593269,0.364775226 L219.19666,0.364775226 C219.730856,0.914411429 220.384119,0.586461828 220.979457,0.678983922 C221.60778,0.678067862 222.236104,0.677151801 222.863623,0.678067862 C223.364833,0.678067862 223.866044,0.678067862 224.367254,0.678067862 C224.961788,0.586461828 225.614247,0.914411429 226.147638,0.364775226 L227.216833,0.364775226 C227.942502,0.948305661 228.768735,0.664326957 229.54348,0.663410896 C241.180735,0.661578776 252.806728,1.35137221 264.437547,1.47046005 C270.370818,1.53000398 276.326615,1.13884621 282.263908,1.14617469 C287.819863,1.15167106 293.421675,0.790743283 298.950277,2.07872412 C302.082239,2.80790815 299.630893,3.17433228 302.852961,3.17891258 C307.645435,3.185325 311.725916,5.83823574 315.894893,8.09174417 C316.284277,8.30152199 316.847435,8.70184035 316.70745,9.1580384 C316.120961,11.0735206 317.434728,10.9901591 318.359111,11.4014702 C320.813675,12.4952462 321.079164,13.7694861 319.461292,16.470032 C314.860292,19.460053 314.861901,19.460053 315.728359,25.5381133 C315.857886,26.4404327 315.849036,27.3519128 315.865126,28.2606446 C315.502292,32.5139128 314.396089,33.0617168 310.925427,30.467434 C310.930254,31.5786152 311.609262,32.0989374 311.986577,32.7585009 C312.423427,33.5215791 313.00348,34.1646535 313.503081,34.8755163 C314.065435,35.675237 314.819262,36.707637 314.074284,37.5650695 C312.58272,39.2808505 312.948773,41.2027451 313.053359,43.2180778 C313.144269,44.9732494 312.419405,46.561698 311.796713,48.1318254 C311.301134,49.3804157 311.220683,50.5035057 312.453194,51.2409342 C314.631006,52.543572 314.952811,54.7631862 314.707435,57.2127316 C314.530442,58.9779798 314.472517,60.5700927 315.857081,61.9002123 C317.039713,63.0379593 316.424262,64.2828853 315.567457,65.3180334 C314.834547,66.2038638 313.835344,66.7452554 313.100021,67.6301697 C312.29551,68.5984455 311.614089,69.5758819 311.962442,71.1194435 C312.974517,75.6072231 312.817638,75.8344061 308.75566,76.8237513 C308.581081,76.8668061 308.408111,76.9080288 308.059758,77.0875766 C309.296292,78.4030393 308.786232,79.3667348 307.511886,79.9960682 C302.871465,82.285303 303.971232,84.8072171 298.653412,84.638662 C295.023457,84.5223223 291.412006,85.4392987 287.826299,86.1803916 C283.188292,87.1395067 278.637976,86.0759607 274.061916,85.4777733 C271.848705,85.2414297 269.66848,84.6771365 267.432743,84.6972899 C241.724585,83.1180018 215.993901,83.2966336 190.272871,83.5824444 C176.755472,83.7326783 163.234051,84.3070482 149.719066,84.8145456 C139.31754,85.2057034 128.911186,85.5318208 118.517705,86.0457307 C108.392126,86.5477317 98.2544797,86.6155202 88.1289008,87.5361609 C70.4642466,89.1429307 52.7344271,89.2006425 35.0408105,88.1627461 C27.7994045,87.7376941 20.555585,86.6255969 13.3841714,85.169977 C11.3093368,84.7485892 9.59814135,83.5512984 8.81132932,81.3985566 C7.75581053,78.5111344 5.96496842,76.5095426 3.74934436,74.9421633 C1.09928421,73.0679039 0.195013534,70.3545332 0.260178947,66.966942 C0.320517293,63.8211908 0.388900752,60.6983412 1.23846466,57.6570208 C1.8619609,55.4254979 1.27788571,53.2351976 0.860344361,51.0623025 C0.462111278,48.9938382 0.434757895,46.8630819 0.000321804511,44.8037782 L0.000321804511,44.1945981 C0.449239098,42.5713392 0.449239098,40.9480803 0.000321804511,39.3248214 L0.000321804511,38.7165573 C0.516818045,33.3301225 2.46293083,28.3925573 3.78554737,23.2635355 C5.05184812,18.3534521 7.46457744,14.2751514 11.323818,11.4555177 C12.5611564,10.5513662 13.3117654,9.45117771 13.6432241,7.65020309 C14.1613293,4.83698179 16.3970662,4.08123201 18.5789008,3.82931542 C21.4139985,3.50228188 24.3247203,3.32456618 27.1147654,3.82931542 C31.867818,4.68949608 36.5573143,4.07939989 41.2299158,3.54900096 C55.9468406,1.8781069 70.6838782,1.11960894 85.474818,0.884181437 C102.75572,0.609363336 120.037427,0.523253665 137.311089,0.766009654 C156.730382,1.03807957 176.147262,0.711962094 195.562532,1.03075109 C201.701758,1.13151773 207.82972,1.57305881 213.94642,0.679899982 C215.158014,0.529666087 216.411442,0.99868898 217.593269,0.364775226" id="Fill-1" fill="#E479A5" mask="url(#mask-2)"></path>
                    </g>
                    <g id="Group-6" transform="translate(213.407202, 2.415710)">
                        <mask id="mask-4" fill="white">
                            <use xlink:href="#path-3"></use>
                        </mask>
                        <g id="Clip-5"></g>
                        <path d="M0.379153463,0.9172 C0.338250416,0.7382 0.354255956,0.5642 0.426280886,0.3982 L3.97150803,0.3982 C2.91780997,1.8302 1.57690139,0.7392 0.379153463,0.9172" id="Fill-4" fill="#B82446" mask="url(#mask-4)"></path>
                    </g>
                    <g id="Group-9" transform="translate(220.520776, 2.415710)">
                        <mask id="mask-6" fill="white">
                            <use xlink:href="#path-5"></use>
                        </mask>
                        <g id="Clip-8"></g>
                        <path d="M2.79056593,0.9602 C1.98851053,0.9532 1.18645512,0.9462 0.384399723,0.9392 C0.208338781,0.8112 0.151430194,0.6892 0.215452355,0.5702 C0.278585319,0.4562 0.340829086,0.3982 0.403072853,0.3982 L2.76744681,0.3982 C2.95239972,0.5132 3.01731108,0.6352 2.96218089,0.7632 C2.90705069,0.8942 2.84925291,0.9602 2.79056593,0.9602" id="Fill-7" fill="#B82446" mask="url(#mask-6)"></path>
                    </g>
                    <g id="Group-12" transform="translate(218.742382, 2.415710)">
                        <mask id="mask-8" fill="white">
                            <use xlink:href="#path-7"></use>
                        </mask>
                        <g id="Clip-11"></g>
                        <path d="M2.18182188,0.3982 C2.1773759,0.5792 2.17115152,0.7592 2.16314875,0.9402 C1.53359751,0.9412 0.767999169,1.5002 0.408763712,0.3982 L2.18182188,0.3982 Z" id="Fill-10" fill="#B82446" mask="url(#mask-8)"></path>
                    </g>
                    <g id="Group-15" transform="translate(222.299169, 2.415710)">
                        <mask id="mask-10" fill="white">
                            <use xlink:href="#path-9"></use>
                        </mask>
                        <g id="Clip-14"></g>
                        <path d="M0.1229759,0.9602 C0.10697036,0.7732 0.0998567867,0.5852 0.0998567867,0.3982 L1.87202576,0.3982 C2.05608947,0.5122 2.12100083,0.6342 2.06853823,0.7642 C2.01518643,0.8982 1.95916704,0.9642 1.90136925,0.9642 C1.30827507,0.9632 0.716070083,0.9612 0.1229759,0.9602" id="Fill-13" fill="#B82446" mask="url(#mask-10)"></path>
                    </g>
                    <g id="Group-18" transform="translate(224.077562, 2.415710)">
                        <mask id="mask-12" fill="white">
                            <use xlink:href="#path-11"></use>
                        </mask>
                        <g id="Clip-17"></g>
                        <path d="M0.163967867,0.9646 C0.126028809,0.7766 0.112987258,0.5886 0.124843213,0.3986 L2.48892078,0.3986 C2.05617839,1.5876 0.978472022,0.8896 0.163967867,0.9646" id="Fill-16" fill="#B82446" mask="url(#mask-12)"></path>
                    </g>
                    <path d="M319.221607,17.4157099 C316.50571,20.7382314 316.261472,25.1016276 315.900829,29.4157099 C315.792993,27.805084 315.790136,26.2067865 315.36022,24.617295 C314.19402,20.3093769 314.603226,19.4366977 318.143961,17.9519982 C318.510317,17.798773 318.863105,17.5962339 319.221607,17.4157099" id="Fill-19" fill="#B82446"></path>
                    <path d="M274.761773,86.1508254 C272.628944,86.4358578 270.476262,87.0261709 268.537396,84.4157099 C270.616007,84.9281453 272.73509,84.8596129 274.761773,86.1508254" id="Fill-21" fill="#B82446"></path>
                </g>
            </g>
        </g>
    </g>
</svg>

<svg width="321" height="90" xmlns="http://www.w3.org/2000/svg" xmlns:xlink="http://www.w3.org/1999/xlink"><defs><path id="a" d="M0 .365h320.48v88.493H0z"/><path id="c" d="M.357.398h3.615v.875H.357z"/><path id="e" d="M.19.398h2.791v.781H.19z"/><path id="g" d="M.409.398h1.773v.843H.409z"/><path id="i" d="M.1.398h1.986v.783H.1z"/><path id="k" d="M.12.398H2.49v.852H.12z"/></defs><g fill="none" fill-rule="evenodd"><g transform="translate(0 .416)"><mask id="b" fill="#fff"><use xlink:href="#a"/></mask><path d="M217.593.365h1.604c.534.55 1.187.221 1.782.314.629 0 1.257-.002 1.885 0h1.503c.595-.093 1.247.235 1.78-.314h1.07c.726.583 1.552.3 2.326.298 11.638-.001 23.264.688 34.895.807 5.933.06 11.889-.331 17.826-.324 5.556.006 11.158-.355 16.686.933 3.132.729.68 1.095 3.903 1.1 4.792.006 8.873 2.66 13.042 4.913.39.21.952.61.812 1.066-.586 1.916.728 1.832 1.652 2.243 2.455 1.094 2.72 2.368 1.102 5.069-4.6 2.99-4.6 2.99-3.733 9.068.13.902.121 1.814.137 2.723-.363 4.253-1.469 4.8-4.94 2.206.005 1.112.684 1.632 1.062 2.292.436.763 1.016 1.406 1.516 2.117.562.8 1.316 1.832.571 2.69-1.491 1.715-1.125 3.637-1.02 5.652.09 1.755-.635 3.344-1.257 4.914-.496 1.248-.576 2.372.656 3.109 2.178 1.303 2.5 3.522 2.254 5.972-.177 1.765-.234 3.357 1.15 4.687 1.183 1.138.567 2.383-.29 3.418-.732.886-1.732 1.427-2.467 2.312-.804.968-1.486 1.946-1.138 3.49 1.013 4.487.856 4.714-3.206 5.704-.175.043-.348.084-.696.264 1.236 1.315.726 2.279-.548 2.908-4.64 2.29-3.54 4.811-8.859 4.643-3.63-.117-7.241.8-10.827 1.541-4.638.96-9.188-.104-13.764-.702-2.213-.237-4.394-.8-6.63-.78-25.707-1.58-51.438-1.401-77.16-1.116-13.517.15-27.038.725-40.553 1.233-10.401.39-20.808.717-31.201 1.23-10.126.503-20.264.57-30.39 1.491-17.664 1.607-35.394 1.665-53.087.627-7.242-.425-14.485-1.537-21.657-2.993-2.075-.421-3.786-1.619-4.573-3.771-1.055-2.888-2.846-4.89-5.062-6.457C1.1 73.068.195 70.355.26 66.967c.06-3.146.129-6.269.978-9.31.624-2.232.04-4.422-.378-6.595-.398-2.068-.425-4.199-.86-6.258v-.61a8.973 8.973 0 000-4.87v-.607c.517-5.387 2.463-10.324 3.786-15.453 1.266-4.91 3.679-8.989 7.538-11.808 1.237-.905 1.988-2.005 2.32-3.806.517-2.813 2.753-3.569 4.935-3.82 2.835-.328 5.746-.505 8.536 0 4.753.86 9.442.25 14.115-.281 14.717-1.67 29.454-2.43 44.245-2.665 17.28-.275 34.562-.36 51.836-.118 19.42.272 38.836-.054 58.252.265 6.139.1 12.267.542 18.383-.351 1.212-.15 2.465.319 3.647-.315" fill="#E479A5" mask="url(#b)"/></g><g transform="translate(213.407 2.416)"><mask id="d" fill="#fff"><use xlink:href="#c"/></mask><path d="M.38.917A.818.818 0 01.425.398h3.546C2.918 1.83 1.577.74.379.918" fill="#B82446" mask="url(#d)"/></g><g transform="translate(220.52 2.416)"><mask id="f" fill="#fff"><use xlink:href="#e"/></mask><path d="M2.79.96L.385.94C.208.81.151.69.215.57.28.456.341.398.403.398h2.364c.185.115.25.237.195.365-.055.131-.113.197-.171.197" fill="#B82446" mask="url(#f)"/></g><g transform="translate(218.742 2.416)"><mask id="h" fill="#fff"><use xlink:href="#g"/></mask><path d="M2.182.398c-.005.181-.01.361-.019.542C1.533.941.768 1.5.41.398h1.773z" fill="#B82446" mask="url(#h)"/></g><g transform="translate(222.3 2.416)"><mask id="j" fill="#fff"><use xlink:href="#i"/></mask><path d="M.123.96A6.598 6.598 0 01.1.398h1.772c.184.114.249.236.197.366-.054.134-.11.2-.168.2C1.308.964.716.961.123.96" fill="#B82446" mask="url(#j)"/></g><g transform="translate(224.078 2.416)"><mask id="l" fill="#fff"><use xlink:href="#k"/></mask><path d="M.164.965a2.163 2.163 0 01-.04-.566H2.49C2.056 1.588.979.889.164.965" fill="#B82446" mask="url(#l)"/></g><path d="M319.222 17.416c-2.716 3.322-2.96 7.686-3.321 12-.108-1.61-.11-3.21-.54-4.799-1.167-4.308-.758-5.18 2.783-6.665.366-.153.72-.356 1.078-.536M274.762 86.15c-2.133.286-4.286.876-6.225-1.734 2.079.512 4.198.444 6.225 1.735" fill="#B82446"/></g></svg>
